frontend/public/svg/files/file-code.svg

<svg width="142" height="174" viewBox="0 0 142 174" fill="none" xmlns="http://www.w3.org/2000/svg">
<g clip-path="url(#clip0)">
<path d="M140.732 92.4706C140.913 108.748 141.156 125.03 141.24 141.311C141.27 147.256 140.814 153.202 140.768 159.15C140.703 167.52 134.156 172.564 126.574 172.718C111.197 173.032 95.8149 173.404 80.4337 173.326C62.1304 173.231 43.8277 172.758 25.529 172.288C21.2689 172.078 17.0244 171.622 12.8165 170.925C7.68458 170.197 2.63986 164.296 2.45543 158.704C1.99008 144.569 1.45518 130.433 1.29963 116.292C0.957019 85.182 0.890149 54.0713 0.558042 22.9648C0.506848 18.1854 0.628874 13.5567 2.60445 9.13623C4.08318 5.82825 6.20448 3.15107 9.87143 2.16197C11.1711 1.8268 12.5039 1.63684 13.8455 1.596C19.5661 1.36956 25.3006 1.38047 31.0101 1.00504C52.4573 -0.400177 73.9018 0.677174 95.3483 0.855698C97.4026 0.817656 99.4438 1.19719 101.347 1.9716C103.251 2.74602 104.977 3.89933 106.422 5.36097C113.254 11.8522 120.577 17.8265 127.662 24.0538C130.276 26.351 132.687 28.885 135.374 31.087C138.445 33.6047 139.377 36.8181 139.432 40.6039C139.665 56.6605 139.99 72.7155 140.276 88.7708C140.298 90.0047 140.276 91.2393 140.276 92.4739L140.732 92.4706ZM93.4239 9.25286C91.4805 9.09402 89.8252 8.86641 88.1666 8.83818C74.0225 8.59836 59.878 8.38104 45.733 8.18631C39.339 8.0977 32.9436 8.0616 26.5489 8.02288C23.2994 8.00319 20.0434 7.89975 16.8024 8.06515C12.1693 8.30143 10.8086 9.64541 9.97638 14.3376C9.18634 18.5346 9.02403 22.8253 9.49469 27.0701C9.71509 28.8525 9.83008 30.6467 9.8392 32.4426C9.91494 72.5232 9.97756 112.602 10.027 152.679C9.98642 153.689 10.0237 154.699 10.1386 155.703C10.9465 160.823 13.646 163.929 19.2315 164.154C40.8952 165.029 62.5595 165.025 84.2312 164.659C95.1199 164.474 106.01 164.38 116.9 164.256C119.591 164.225 122.288 164.327 124.973 164.2C129.811 163.971 132.069 161.64 132.024 156.746C131.946 148.222 131.726 139.699 131.553 131.175C131.451 126.237 131.366 121.298 131.202 116.362C130.836 105.369 130.25 94.3799 130.079 83.3842C129.893 71.3733 130.079 59.3623 130.09 47.3474C130.09 46.481 130.011 45.6141 129.967 44.7162C129.598 44.6159 129.221 44.5477 128.839 44.513C121.993 44.6496 115.147 44.8665 108.3 44.9072C106.169 44.924 104.045 44.6812 101.972 44.1849C97.7255 43.1518 96.422 41.522 95.9278 37.2145C95.7874 35.9891 95.7808 34.7494 95.6653 33.52C94.944 25.6013 94.2049 17.6756 93.4239 9.25286ZM124.83 35.6172L124.969 34.9058L102.741 14.7381L102.229 15.0734C103.32 22.2386 104.412 29.4039 105.535 36.7825L124.83 35.6172Z" fill="black"/>
<path d="M108 128.48C104.413 125.225 101.04 122.147 97.647 119.094C96.4 117.97 95.0827 116.92 93.8455 115.785C93.2666 115.254 92.754 114.656 92.3182 114.003C91.1296 112.211 91.1906 110.276 92.3996 109.066C93.0638 108.446 93.9341 108.094 94.8425 108.079C95.7508 108.064 96.633 108.387 97.3175 108.984C101.11 111.951 104.862 114.977 108.508 118.121C110.795 120.095 112.854 122.333 115.027 124.441C118.07 127.394 118.289 129.888 115.138 132.756C110.084 137.355 104.788 141.683 99.5714 146.103C98.3919 147.139 97.1416 148.091 95.8303 148.953C93.6867 150.309 91.3672 149.994 90.1083 148.333C88.8613 146.684 89.2826 144.411 91.3022 142.709C95.6747 139.025 100.108 135.413 104.491 131.744C105.589 130.819 106.594 129.794 108 128.48Z" fill="black"/>
<path d="M33.2737 128.781C38.2973 131.698 42.9396 134.389 47.5753 137.09C48.6667 137.655 49.7144 138.301 50.7099 139.022C52.2037 140.226 52.5627 141.683 51.9681 143.188C51.2986 144.882 49.9408 145.705 47.9376 145.444C47.0513 145.329 46.1938 145.052 45.4081 144.626C39.1453 141.147 32.8641 137.703 26.6866 134.079C23.4509 132.181 23.1319 129.353 25.5348 126.465C26.0336 125.866 26.6413 125.358 27.1933 124.802C32.7177 119.24 38.2644 113.702 43.7514 108.103C45.6823 106.134 47.2766 105.581 48.6294 106.698C50.0011 107.83 50.1009 109.646 48.3222 111.796C44.6099 116.281 40.6883 120.593 36.8363 124.961C35.8065 126.126 34.715 127.239 33.2737 128.781Z" fill="black"/>
<path d="M79.824 103.237C82.7631 102.628 83.8894 103.276 83.8933 105.879C83.8395 107.894 83.594 109.898 83.1615 111.865C81.5771 120.141 78.7391 128.037 75.7108 135.867C74.5405 138.894 73.4497 141.963 72.0412 144.878C71.2851 146.339 70.2218 147.62 68.9242 148.632C67.8242 149.515 66.31 149.288 65.1831 148.352C64.6355 147.944 64.2351 147.369 64.0424 146.714C63.8496 146.059 63.875 145.359 64.1147 144.72C64.6559 143.252 65.2916 141.821 66.018 140.436C71.293 130.153 75.8072 119.578 78.43 108.276C78.7581 106.859 79.0627 105.436 79.3981 104.021C79.5123 103.745 79.6547 103.483 79.824 103.237Z" fill="black"/>
</g>
<defs>
<clipPath id="clip0">
<rect width="141.113" height="173.93" fill="white" transform="translate(0.348633 0.0107422)"/>
</clipPath>
</defs>
</svg>

<svg xmlns="http://www.w3.org/2000/svg" width="142" height="174" fill="none" viewBox="0 0 142 174"><g fill="#000" clip-path="url(#a)"><path d="M140.732 92.47c.181 16.278.424 32.56.508 48.841.03 5.945-.426 11.891-.472 17.839-.065 8.37-6.612 13.414-14.194 13.568-15.377.314-30.76.686-46.14.608-18.304-.095-36.606-.568-54.905-1.038a111 111 0 0 1-12.712-1.363c-5.132-.728-10.177-6.629-10.362-12.221-.465-14.135-1-28.271-1.155-42.412-.343-31.11-.41-62.22-.742-93.327-.051-4.78.07-9.408 2.046-13.829 1.48-3.308 3.6-5.985 7.267-6.974a18 18 0 0 1 3.974-.566c5.721-.226 11.456-.216 17.165-.591C52.457-.4 73.902.677 95.348.855a15.17 15.17 0 0 1 11.074 4.506c6.832 6.491 14.155 12.465 21.24 18.693 2.614 2.297 5.025 4.831 7.712 7.033 3.071 2.518 4.003 5.731 4.058 9.517.233 16.057.558 32.112.844 48.167.022 1.234 0 2.468 0 3.703zM93.424 9.254c-1.944-.159-3.599-.387-5.257-.415q-21.217-.36-42.434-.652c-6.394-.088-12.79-.124-19.184-.163-3.25-.02-6.506-.123-9.747.042-4.633.236-5.993 1.58-6.826 6.273a43.1 43.1 0 0 0-.481 12.732c.22 1.782.335 3.577.344 5.373q.114 60.12.188 120.236-.06 1.517.112 3.024c.808 5.12 3.507 8.226 9.093 8.451 21.663.875 43.328.871 65 .505 10.888-.185 21.778-.279 32.668-.403 2.691-.031 5.388.071 8.073-.056 4.838-.229 7.096-2.56 7.051-7.454-.078-8.524-.298-17.047-.471-25.571-.102-4.938-.187-9.877-.351-14.813-.366-10.993-.952-21.982-1.123-32.978-.186-12.01 0-24.022.011-36.037 0-.866-.079-1.733-.123-2.63a6.6 6.6 0 0 0-1.128-.204c-6.846.137-13.692.354-20.539.394a26.3 26.3 0 0 1-6.328-.722c-4.246-1.033-5.55-2.663-6.044-6.97-.14-1.226-.147-2.466-.263-3.695-.721-7.919-1.46-15.844-2.241-24.267m31.406 26.364.139-.711-22.228-20.168-.512.335 3.306 21.71z"/><path d="M108 128.48c-3.587-3.255-6.96-6.333-10.353-9.386-1.247-1.124-2.564-2.174-3.802-3.309a9.8 9.8 0 0 1-1.527-1.782c-1.188-1.792-1.127-3.727.082-4.937a3.67 3.67 0 0 1 4.917-.082c3.793 2.967 7.545 5.993 11.191 9.137 2.287 1.974 4.346 4.212 6.519 6.32 3.043 2.953 3.262 5.447.111 8.315-5.054 4.599-10.35 8.927-15.567 13.347a34 34 0 0 1-3.74 2.85c-2.144 1.356-4.464 1.041-5.723-.62-1.247-1.649-.825-3.922 1.194-5.624 4.373-3.684 8.806-7.296 13.189-10.965 1.098-.925 2.103-1.95 3.509-3.264m-74.726.301c5.023 2.917 9.666 5.608 14.301 8.309a25 25 0 0 1 3.135 1.932c1.494 1.204 1.853 2.661 1.258 4.166-.67 1.694-2.027 2.517-4.03 2.256a7.3 7.3 0 0 1-2.53-.818c-6.263-3.479-12.544-6.923-18.721-10.547-3.236-1.898-3.555-4.726-1.152-7.614.499-.599 1.106-1.107 1.658-1.663 5.525-5.562 11.071-11.1 16.558-16.699 1.931-1.969 3.526-2.522 4.878-1.405 1.372 1.132 1.472 2.948-.307 5.098-3.712 4.485-7.634 8.797-11.486 13.165-1.03 1.165-2.121 2.278-3.562 3.82m46.55-25.544c2.94-.609 4.065.039 4.07 2.642a32 32 0 0 1-.733 5.986c-1.584 8.276-4.422 16.172-7.45 24.002-1.17 3.027-2.261 6.096-3.67 9.011a11.4 11.4 0 0 1-3.117 3.754c-1.1.883-2.614.656-3.74-.28a3.15 3.15 0 0 1-1.07-3.632 36 36 0 0 1 1.904-4.284c5.275-10.283 9.79-20.858 12.412-32.16.328-1.417.633-2.84.968-4.255q.172-.414.426-.784"/></g><defs><clipPath id="a"><path fill="#fff" d="M.349.01h141.113v173.93H.349z"/></clipPath></defs></svg>
